X:1122
T:Polska efter modern
T:(SvL Dalarna 1122)
O:Rättvik, Dalarna
R:Polska
R:Vallåt
B:Svenska Låtar Dalarna
S:Höök Olle
N:SvL: Låten användes av modern som vallåt.
N:Jfr SvL Dalarna nr 51 och 263.
M:3/4
L:1/8
K:Am
Q:144
v[BB](^G E)(G A)>(B|c)>(B (3A)^GA [BB]2|B^G AB cd|1(e>f) d(f/d/) e2:|2(e>f) d(f/d/) ev(B]|
|:vc)d ed Bc/B/|(A{BA)}^G EG B2|cd ed Bc/B/|(A{BA)}^G EG B2|vB>(G A)>B c(e/d/)|1B^G [AA,]3 v(B:|2B^G [AA,]4]|

